resources/svg/superscript.svg

<svg xmlns="http://www.w3.org/2000/svg" fill="none" viewBox="0 0 14 14"><path fill="currentColor" fill-rule="evenodd" d="M11.6294 0.0834961C10.9209 0.0834961 10.3198 0.536581 10.0971 1.16688C9.98202 1.49233 10.1526 1.84941 10.478 1.96444C10.8035 2.07947 11.1606 1.90889 11.2756 1.58344C11.3274 1.43695 11.4671 1.3335 11.6294 1.3335H12.322C12.5148 1.3335 12.6711 1.48977 12.6711 1.68255C12.6711 1.82123 12.589 1.94676 12.4619 2.00235L10.9781 2.65153C10.3866 2.9103 10.0044 3.49468 10.0044 4.14029V4.7085C10.0044 5.05367 10.2842 5.3335 10.6294 5.3335H13.2961C13.6413 5.3335 13.9211 5.05367 13.9211 4.7085C13.9211 4.36332 13.6413 4.0835 13.2961 4.0835H11.2587C11.278 3.95778 11.3602 3.84874 11.4791 3.79673L12.963 3.14754C13.545 2.8929 13.9211 2.31786 13.9211 1.68255C13.9211 0.799419 13.2052 0.0834961 12.322 0.0834961H11.6294ZM7.95494 5.62112C7.6538 5.33671 7.17912 5.35028 6.89471 5.65141L4.32889 8.36817L1.76306 5.65141C1.47866 5.35028 1.00398 5.33671 0.702837 5.62112C0.401698 5.90553 0.388136 6.38021 0.672545 6.68135L3.29727 9.46047L0.2836 12.6514C-0.000809319 12.9526 0.0127529 13.4272 0.313892 13.7116C0.615031 13.996 1.08971 13.9825 1.37412 13.6813L4.32889 10.5528L7.28366 13.6813C7.56807 13.9825 8.04275 13.996 8.34389 13.7116C8.64502 13.4272 8.65859 12.9526 8.37418 12.6514L5.36051 9.46047L7.98523 6.68135C8.26964 6.38021 8.25608 5.90553 7.95494 5.62112Z" clip-rule="evenodd"></path></svg>

<svg xmlns="http://www.w3.org/2000/svg" fill="none" viewBox="0 0 14 14"><path fill="currentColor" fill-rule="evenodd" d="M11.63.083c-.71 0-1.31.454-1.533 1.084a.625.625 0 1 0 1.179.416.375.375 0 0 1 .353-.25h.693a.35.35 0 0 1 .14.67l-1.484.649a1.625 1.625 0 0 0-.974 1.488v.569c0 .345.28.625.625.625h2.667a.625.625 0 1 0 0-1.25H11.26a.375.375 0 0 1 .22-.287l1.484-.65a1.6 1.6 0 0 0-.641-3.064h-.693ZM7.954 5.621a.75.75 0 0 0-1.06.03L4.329 8.368 1.763 5.651a.75.75 0 0 0-1.09 1.03l2.624 2.78-3.013 3.19a.75.75 0 1 0 1.09 1.03l2.955-3.128 2.955 3.128a.75.75 0 1 0 1.09-1.03l-3.013-3.19 2.624-2.78a.75.75 0 0 0-.03-1.06Z" clip-rule="evenodd"/></svg>
